X: 58
T:Argeers
T:The Wedding Night
M:C|
L:1/8
Q:230
H:No convincing explanation has been found for the title.  The North
H:African territory of Algiers was much in the news in the 1660s.
K:D
defg e2d2|c2A2 A4|a2e2 a3g|f2d2 d4|defg e2d2|c3d e2A2|Bcd2 cdef|d8||
cde2 cde2|a2e2 a2e2|cde2 cde2|a2e2 a2e2|a2gf g2ag|f2ed e3A|Bcde cdef|d8|
|

